icons/bhi_credential.svg

<svg xmlns="http://www.w3.org/2000/svg" viewBox="0 0 512 448"><defs><style>.cls-1{fill:#010101;fill-rule:evenodd;}</style></defs><title>bhi_credential</title><path class="cls-1" d="M486 0h-460a26 26 0 0 0-26 26v268a26 26 0 0 0 26 26h230v128l96-64 96 64v-128h38a26 26 0 0 0 26-26v-268a26 26 0 0 0-26-26zm-442 50.86h170v45.28h-170zm0 88.64h96v45h-96zm170 129.5h-170v-45h170zm192.8-76.44l12.14 77.44-69.44-46.16-65.77 45.84 6-77.4-77.91-31.6 75.41-31.23-12.17-77.45 69.44 46.16 65.77-45.84-6 77.4 77.91 31.6z" id="Layer_1-2"/></svg>

<svg xmlns="http://www.w3.org/2000/svg" viewBox="0 0 512 448"><defs><style>.cls-1{fill:#010101;fill-rule:evenodd;}</style></defs><title>bhi_credential</title><g id="Layer_2" data-name="Layer 2"><g id="Layer_1-2" data-name="Layer 1"><path class="cls-1" d="M486,0H26A26,26,0,0,0,0,26V294a26,26,0,0,0,26,26H256V448l96-64,96,64V320h38a26,26,0,0,0,26-26V26A26,26,0,0,0,486,0ZM44,50.86H214V96.14H44Zm0,88.64h96v45H44ZM214,269H44V224H214Zm192.8-76.44L418.94,270,349.5,223.84l-65.77,45.84,6-77.4-77.91-31.6,75.41-31.23L275.06,52,344.5,98.16l65.77-45.84-6,77.4,77.91,31.6Z"/></g></g></svg>
